X: 9244
T: Dan McCarthy's Fancy
R: strathspey
M: 4/4
K: Adorian
|:f>g|e>A (3AAA e>gf>g|e>A (3AAA e2 (3def|e>A^G>A e>=gf>g|g>eB>d g>A:|
(3Bcd|e>a (3aaa b>ga>g|e>aa>g (3efg B>g|e>a^g>a b>a (3fga|g>eB>g G>A (3Bcd|
e>a (3aaa b2 a>g|e>aa>g e3/2[A/a/]d>f|d>e (3fga [B3/2b3/2]g/[A3/2a3/2]f/|[G3/2g3/2]e/B>d g2||

